src/sources/forus-platform/resources/_platform-common/assets/img/menu/icon-dropdown-authorize-device.svg

<svg width="32" height="32" viewBox="0 0 32 32" fill="none" xmlns="http://www.w3.org/2000/svg">
    <path fill-rule="evenodd" clip-rule="evenodd" d="M11.9125 7H20.8375C21.6063 7 22.75 7.51364 22.75 8.92857V23.0714C22.75 23.8467 22.2406 25 20.8375 25H11.9125C11.1437 25 10 24.4864 10 23.0714V8.92857C10 8.15329 10.5094 7 11.9125 7ZM20.8376 23.7143C21.3514 23.7143 21.4675 23.3607 21.4751 23.0637V21.1429H11.2751V23.0714C11.2751 23.5896 11.6257 23.7066 11.9203 23.7143H20.8376ZM21.4751 19.8571H11.2751V8.93626C11.2828 8.63926 11.3994 8.28569 11.9126 8.28569H20.83C21.1245 8.2934 21.4751 8.41105 21.4751 8.92855V19.8571ZM14.4631 21.7857C14.1112 21.7857 13.8256 22.073 13.8256 22.4285C13.8256 22.784 14.1112 23.0714 14.4631 23.0714H18.2881C18.6406 23.0714 18.9256 22.784 18.9256 22.4285C18.9256 22.073 18.6406 21.7857 18.2881 21.7857H14.4631Z" fill="#646F79"/>
</svg>

<svg width="32" height="32" fill="none" xmlns="http://www.w3.org/2000/svg"><path fill-rule="evenodd" clip-rule="evenodd" d="M11.912 7h8.925c.77 0 1.913.514 1.913 1.929V23.07c0 .776-.51 1.929-1.913 1.929h-8.925C11.144 25 10 24.486 10 23.071V8.93C10 8.153 10.51 7 11.912 7Zm8.926 16.714c.513 0 .63-.353.637-.65v-1.921h-10.2v1.928c0 .519.35.636.645.643h8.918Zm.637-3.857h-10.2V8.937c.008-.298.124-.651.638-.651h8.917c.295.007.645.125.645.643v10.928Zm-7.012 1.929a.64.64 0 0 0-.637.642.64.64 0 0 0 .637.643h3.825a.64.64 0 0 0 .638-.643.64.64 0 0 0-.638-.642h-3.825Z" fill="#646F79"/></svg>
